X: 52
T:Tom Billy's (Jig)
M:6/8
L:1/8
Q:120
K:ADor
"Am"ABA ABd|edB "G"G2B|dBB GBB|"Am"ABd efg|
ABA ABd|edB "G"G2B|dBB "Em"gBB|"Am"ABA A3::
"Am"eaa aga|bab age|"G"ege GBd|ede ged|
"Am"eaa aga|bab age|"G"e/2f/2ge "Em"dBG|"Am"ABA A3:||
